svg/icon/plr.svg

<svg xmlns="http://www.w3.org/2000/svg" xmlns:xlink="http://www.w3.org/1999/xlink" width="32" height="32" viewBox="0 0 32 32">
  <defs>
    <linearGradient id="plr-c" x1="50%" x2="50%" y1="0%" y2="100%">
      <stop offset="0%" stop-color="#FFF" stop-opacity=".5"/>
      <stop offset="100%" stop-opacity=".5"/>
    </linearGradient>
    <circle id="plr-b" cx="16" cy="15" r="15"/>
    <filter id="plr-a" width="111.7%" height="111.7%" x="-5.8%" y="-4.2%" filterUnits="objectBoundingBox">
      <feOffset dy=".5" in="SourceAlpha" result="shadowOffsetOuter1"/>
      <feGaussianBlur in="shadowOffsetOuter1" result="shadowBlurOuter1" stdDeviation=".5"/>
      <feComposite in="shadowBlurOuter1" in2="SourceAlpha" operator="out" result="shadowBlurOuter1"/>
      <feColorMatrix in="shadowBlurOuter1" values="0 0 0 0 0   0 0 0 0 0   0 0 0 0 0  0 0 0 0.199473505 0"/>
    </filter>
    <path id="plr-e" d="M8.40974867,19.902439 L8.312262,19.902439 L8.312262,24 L6,24 L6,10.125 L8.2604722,10.125 L8.2604722,10.7652439 L8.3488195,10.7652439 C9.13785225,10.0091463 10.1431835,9.98780488 10.7067784,9.98780488 C13.0708302,9.98780488 14.6214775,12.2408537 14.6214775,15.25 L14.6214775,15.6402439 C14.6214775,18.7713415 12.8271135,20.6371951 10.6671744,20.6371951 C9.65575019,20.6402439 8.9063214,20.4085366 8.40974867,19.902439 Z M12.4737243,15.8262195 L12.4737243,15.1432927 C12.4737243,13.1829268 11.727342,11.8719512 10.3960396,11.8719512 C8.9581112,11.8719512 8.1873572,13.3963415 8.1873572,15.1432927 L8.1873572,15.8231707 C8.1873572,17.4878049 8.94592536,18.7621951 10.4356436,18.7621951 C11.6085301,18.7591463 12.4737243,17.8445122 12.4737243,15.8262195 Z M15.7395278,6 L18.0548363,6 L18.0548363,20.5762195 L15.7395278,20.5762195 L15.7395278,6 Z M24.6686976,12.4085366 C23.3709063,12.4085366 22.0822544,13.4390244 22.0822544,14.7408537 C22.0822544,15.6280488 22.0822544,20.5853659 22.0822544,20.5853659 L19.7791318,20.5853659 L19.7791318,10.222561 L21.9116527,10.222561 L21.9116527,10.8597561 L22,10.8597561 C22.5178979,10.3140244 23.7852247,10.0579268 24.8271135,10.0731707 C24.9306931,10.0731707 24.8453922,10.0762195 24.9459254,10.0762195 L24.9581112,12.4085366 L24.6686976,12.4085366 Z M23.6968774,18.0945122 L26,18.0945122 L26,20.5762195 L23.6968774,20.5762195 L23.6968774,18.0945122 Z"/>
    <filter id="plr-d" width="117.5%" height="119.4%" x="-8.8%" y="-6.9%" filterUnits="objectBoundingBox">
      <feOffset dy=".5" in="SourceAlpha" result="shadowOffsetOuter1"/>
      <feGaussianBlur in="shadowOffsetOuter1" result="shadowBlurOuter1" stdDeviation=".5"/>
      <feColorMatrix in="shadowBlurOuter1" values="0 0 0 0 0   0 0 0 0 0   0 0 0 0 0  0 0 0 0.204257246 0"/>
    </filter>
  </defs>
  <g fill="none" fill-rule="evenodd">
    <use fill="#000" filter="url(#plr-a)" xlink:href="#plr-b"/>
    <use fill="#00BFFF" xlink:href="#plr-b"/>
    <use fill="url(#plr-c)" style="mix-blend-mode:soft-light" xlink:href="#plr-b"/>
    <circle cx="16" cy="15" r="14.5" stroke="#000" stroke-opacity=".097"/>
    <g fill-rule="nonzero">
      <use fill="#000" filter="url(#plr-d)" xlink:href="#plr-e"/>
      <use fill="#FFF" fill-rule="evenodd" xlink:href="#plr-e"/>
    </g>
  </g>
</svg>

<svg height="32" width="32" xmlns="http://www.w3.org/2000/svg" xmlns:xlink="http://www.w3.org/1999/xlink"><defs><linearGradient id="c" x1="50%" x2="50%" y1="0%" y2="100%"><stop offset="0" stop-color="#fff" stop-opacity=".5"/><stop offset="1" stop-opacity=".5"/></linearGradient><circle id="b" cx="16" cy="15" r="15"/><filter id="a" height="111.7%" width="111.7%" x="-5.8%" y="-4.2%"><feOffset dy=".5" in="SourceAlpha" result="shadowOffsetOuter1"/><feGaussianBlur in="shadowOffsetOuter1" result="shadowBlurOuter1" stdDeviation=".5"/><feComposite in="shadowBlurOuter1" in2="SourceAlpha" operator="out" result="shadowBlurOuter1"/><feColorMatrix in="shadowBlurOuter1" values="0 0 0 0 0 0 0 0 0 0 0 0 0 0 0 0 0 0 0.199473505 0"/></filter><path id="e" d="M8.41 19.902h-.098V24H6V10.125h2.26v.64h.089c.789-.756 1.794-.777 2.358-.777 2.364 0 3.914 2.253 3.914 5.262v.39c0 3.131-1.794 4.997-3.954 4.997-1.011.003-1.76-.228-2.257-.735zm4.064-4.076v-.683c0-1.96-.747-3.271-2.078-3.271-1.438 0-2.209 1.524-2.209 3.271v.68c0 1.665.759 2.94 2.249 2.94 1.173-.004 2.038-.918 2.038-2.937zM15.74 6h2.315v14.576H15.74zm8.929 6.409c-1.298 0-2.587 1.03-2.587 2.332v5.844H19.78V10.223h2.133v.637H22c.518-.546 1.785-.802 2.827-.787.104 0 .018.003.119.003l.012 2.333zm-.972 5.686H26v2.481h-2.303z"/><filter id="d" height="119.4%" width="117.5%" x="-8.8%" y="-6.9%"><feOffset dy=".5" in="SourceAlpha" result="shadowOffsetOuter1"/><feGaussianBlur in="shadowOffsetOuter1" result="shadowBlurOuter1" stdDeviation=".5"/><feColorMatrix in="shadowBlurOuter1" values="0 0 0 0 0 0 0 0 0 0 0 0 0 0 0 0 0 0 0.204257246 0"/></filter></defs><g fill="none" fill-rule="evenodd"><use fill="#000" filter="url(#a)" xlink:href="#b"/><use fill="#00bfff" xlink:href="#b"/><use fill="url(#c)" xlink:href="#b"/><circle cx="16" cy="15" r="14.5" stroke="#000" stroke-opacity=".097"/><g fill-rule="nonzero"><use fill="#000" filter="url(#d)" xlink:href="#e"/><use fill="#fff" fill-rule="evenodd" xlink:href="#e"/></g></g></svg>
